remix/Finance/shopping-basket-2-line.svg

<svg viewBox="0 0 24 24" fill="currentColor" xmlns="http://www.w3.org/2000/svg"><path d="M15.3709 3.44L18.5819 9.002L22.0049 9.00218V11.0022L20.8379 11.002L20.0813 20.0852C20.0381 20.6035 19.6048 21.0022 19.0847 21.0022H4.92502C4.40493 21.0022 3.97166 20.6035 3.92847 20.0852L3.17088 11.002L2.00488 11.0022V9.00218L5.42688 9.002L8.63886 3.44L10.3709 4.44L7.73688 9.002H16.2719L13.6389 4.44L15.3709 3.44ZM18.8309 11.002L5.17788 11.0022L5.84488 19.0022H18.1639L18.8309 11.002ZM13.0049 13.0022V17.0022H11.0049V13.0022H13.0049ZM9.00488 13.0022V17.0022H7.00488V13.0022H9.00488ZM17.0049 13.0022V17.0022H15.0049V13.0022H17.0049Z"/></svg>

<svg viewBox="0 0 24 24" xmlns="http://www.w3.org/2000/svg"><path fill="none" d="M0 0h24v24H0Z"/><path d="M15.36 3.43l3.21 5.56h3.42v2h-1.17l-.76 9.08h-.001c-.05.51-.48.91-1 .91H4.89v0c-.52-.01-.96-.4-.996-.92l-.758-9.09H1.97v-2h3.42L8.6 3.4l1.73 1L7.69 8.96h8.535l-2.64-4.57 1.73-1Zm3.46 7.56H5.167l.66 8h12.31l.66-8Zm-5.83 2v4h-2v-4h2Zm-4 0v4h-2v-4h2Zm8 0v4h-2v-4h2Z"/></svg>
